lib/assets/icons/svg/outlined-social-groupofpeople.svg

<svg xmlns="http://www.w3.org/2000/svg" viewBox="0 0 24 24"><path d="M5.885 11.7a1.64 1.64 0 0 1-.122-.004 2.29 2.29 0 0 0-2.278 2.134.5.5 0 0 1-.5.47.5.5 0 0 1-.47-.53 3.269 3.269 0 0 1 1.861-2.757A1.99 1.99 0 0 1 4.153 8.7c.77-1.333 2.694-1.333 3.464 0a1.998 1.998 0 0 1-.226 2.317c.389.176.747.423 1.054.733a.502.502 0 0 1-.72.7 2.414 2.414 0 0 0-1.768-.751l-.061.001h-.011zm0-3a1 1 0 0 0-.071 1.998l.091.002h.003a.991.991 0 0 0 .843-.5 1 1 0 0 0-.866-1.5zm12.2 3l-.09-.002a2.44 2.44 0 0 0-1.75.752.502.502 0 1 1-.72-.7 3.455 3.455 0 0 1 1.047-.741 1.99 1.99 0 0 1-.219-2.309c.77-1.333 2.694-1.333 3.464 0a1.995 1.995 0 0 1-.212 2.3 3.26 3.26 0 0 1 1.88 2.77.5.5 0 0 1-.47.53h-.03a.5.5 0 0 1-.5-.47 2.29 2.29 0 0 0-2.377-2.13h-.023zm0-3a1 1 0 1 0 .01 2l.055-.002a.988.988 0 0 0 .801-.498 1 1 0 0 0-.866-1.5zm-6.1 4.2c-.077 0-.154-.003-.229-.008a4.25 4.25 0 0 0-4.271 3.938.49.49 0 0 1-.5.47.5.5 0 0 1-.47-.53 5.244 5.244 0 0 1 3.49-4.581C8.913 11.277 8.494 9.646 9.3 8.25c1.194-2.067 4.176-2.067 5.37 0a3.1 3.1 0 0 1-.701 3.932 5.21 5.21 0 0 1 3.486 4.588.5.5 0 0 1-.47.53.5.5 0 0 1-.5-.47 4.23 4.23 0 0 0-4.26-3.939 3.168 3.168 0 0 1-.24.009zm0-5.2c-1.617 0-2.627 1.75-1.819 3.15a2.076 2.076 0 0 0 1.977 1.044 2.076 2.076 0 0 0 1.661-1.044 2.101 2.101 0 0 0-1.819-3.15z"/></svg>

<svg viewBox="0 0 24 24" xmlns="http://www.w3.org/2000/svg">
  <path  d="M 5.885 11.7 C 5.844 11.7 5.803 11.699 5.763 11.696 C 4.569 11.699 3.568 12.624 3.485 13.83 C 3.469 14.094 3.25 14.3 2.985 14.3 C 2.709 14.284 2.498 14.046 2.515 13.77 C 2.589 12.541 3.334 11.509 4.376 11.013 C 3.85 10.405 3.695 9.493 4.153 8.7 C 4.923 7.367 6.847 7.367 7.617 8.7 C 7.793 9.004 7.885 9.349 7.885 9.7 C 7.885 10.204 7.698 10.665 7.391 11.017 C 7.78 11.193 8.138 11.44 8.445 11.75 C 8.714 12.027 8.583 12.492 8.208 12.587 C 8.034 12.631 7.85 12.579 7.725 12.45 C 7.264 11.965 6.624 11.694 5.957 11.699 C 5.937 11.699 5.916 11.7 5.896 11.7 C 5.892 11.7 5.888 11.7 5.885 11.7 Z M 5.885 8.7 C 5.115 8.7 4.634 9.533 5.019 10.2 C 5.198 10.51 5.501 10.676 5.814 10.698 C 5.844 10.698 5.874 10.699 5.905 10.7 C 5.906 10.7 5.907 10.7 5.908 10.7 C 6.237 10.692 6.563 10.526 6.751 10.2 C 6.839 10.048 6.885 9.876 6.885 9.7 C 6.885 9.148 6.437 8.7 5.885 8.7 Z M 18.085 11.7 C 18.055 11.7 18.025 11.699 17.995 11.698 C 17.335 11.701 16.703 11.972 16.245 12.45 C 15.976 12.727 15.507 12.609 15.402 12.237 C 15.353 12.064 15.4 11.879 15.525 11.75 C 15.828 11.436 16.184 11.187 16.572 11.009 C 16.049 10.401 15.896 9.492 16.353 8.7 C 17.123 7.367 19.047 7.367 19.817 8.7 C 19.993 9.004 20.085 9.349 20.085 9.7 C 20.085 10.197 19.904 10.651 19.605 11 C 20.659 11.491 21.414 12.531 21.485 13.77 C 21.502 14.046 21.291 14.284 21.015 14.3 L 20.985 14.3 C 20.72 14.3 20.501 14.094 20.485 13.83 C 20.401 12.615 19.382 11.682 18.172 11.698 C 18.151 11.699 18.129 11.7 18.108 11.7 C 18.107 11.7 18.106 11.7 18.105 11.7 C 18.104 11.7 18.104 11.7 18.103 11.7 C 18.097 11.7 18.091 11.7 18.085 11.7 Z M 18.085 8.7 C 17.315 8.7 16.834 9.533 17.219 10.2 C 17.401 10.516 17.712 10.682 18.031 10.699 C 18.052 10.699 18.074 10.699 18.095 10.7 C 18.113 10.699 18.132 10.699 18.15 10.698 C 18.465 10.678 18.771 10.512 18.951 10.2 C 19.039 10.048 19.085 9.876 19.085 9.7 C 19.085 9.148 18.637 8.7 18.085 8.7 Z M 11.985 12.9 C 11.908 12.9 11.831 12.897 11.756 12.892 C 9.532 12.873 7.65 14.586 7.485 16.83 C 7.474 17.097 7.252 17.306 6.985 17.3 C 6.709 17.284 6.498 17.046 6.515 16.77 C 6.665 14.623 8.09 12.863 10.005 12.189 C 8.913 11.277 8.494 9.646 9.3 8.25 C 10.494 6.183 13.476 6.183 14.67 8.25 C 14.942 8.721 15.085 9.256 15.085 9.8 C 15.085 10.757 14.651 11.613 13.969 12.182 C 15.889 12.851 17.317 14.617 17.455 16.77 C 17.472 17.046 17.261 17.284 16.985 17.3 C 16.72 17.3 16.501 17.094 16.485 16.83 C 16.331 14.584 14.449 12.868 12.225 12.891 C 12.146 12.897 12.066 12.9 11.985 12.9 Z M 11.985 7.7 C 10.368 7.7 9.358 9.45 10.166 10.85 C 10.543 11.503 11.185 11.852 11.843 11.895 C 11.89 11.896 11.938 11.898 11.985 11.9 C 12.038 11.897 12.091 11.895 12.143 11.894 C 12.796 11.846 13.43 11.498 13.804 10.85 C 13.988 10.531 14.085 10.169 14.085 9.8 C 14.085 8.64 13.145 7.7 11.985 7.7 Z"/>
</svg>
